public/Manage Payment card.svg

<svg width="588" height="161" viewBox="0 0 588 161" fill="none" xmlns="http://www.w3.org/2000/svg">
<mask id="mask0_1278_5048" style="mask-type:alpha" maskUnits="userSpaceOnUse" x="0" y="0" width="588" height="161">
<rect width="588" height="161" rx="20" fill="url(#paint0_linear_1278_5048)"/>
</mask>
<g mask="url(#mask0_1278_5048)">
<g filter="url(#filter0_d_1278_5048)">
<rect width="588" height="161" rx="20" fill="url(#paint1_linear_1278_5048)"/>
</g>
<g style="mix-blend-mode:screen">
<path fill-rule="evenodd" clip-rule="evenodd" d="M595.648 -1.74609L581.635 8.59458C567.622 18.9353 538.958 40.0866 491.181 34.0035C442.768 28.3905 375.241 -4.4571 340.935 9.04729C307.265 22.0817 306.815 81.468 287.253 113.62C267.69 145.772 227.741 151.629 191.25 160.84C154.122 170.521 120.452 183.555 94.6097 208.53C69.4043 233.035 52.0262 269.48 23.9994 290.162C-4.02737 310.843 -5.51104 296.382 -30.7164 320.887C-30.7164 331.306 -30.2212 67.568 -30.7159 -1.74613L595.648 -1.74609Z" fill="url(#paint2_linear_1278_5048)" fill-opacity="0.2"/>
</g>
</g>
<defs>
<filter id="filter0_d_1278_5048" x="-8" y="-4" width="604" height="177" filterUnits="userSpaceOnUse" color-interpolation-filters="sRGB">
<feFlood flood-opacity="0" result="BackgroundImageFix"/>
<feColorMatrix in="SourceAlpha" type="matrix" values="0 0 0 0 0 0 0 0 0 0 0 0 0 0 0 0 0 0 127 0" result="hardAlpha"/>
<feOffset dy="4"/>
<feGaussianBlur stdDeviation="4"/>
<feComposite in2="hardAlpha" operator="out"/>
<feColorMatrix type="matrix" values="0 0 0 0 0.00784314 0 0 0 0 0.662745 0 0 0 0 0.968627 0 0 0 0.2 0"/>
<feBlend mode="normal" in2="BackgroundImageFix" result="effect1_dropShadow_1278_5048"/>
<feBlend mode="normal" in="SourceGraphic" in2="effect1_dropShadow_1278_5048" result="shape"/>
</filter>
<linearGradient id="paint0_linear_1278_5048" x1="12.1237" y1="6.01245" x2="242.322" y2="333.281" gradientUnits="userSpaceOnUse">
<stop stop-color="#145EF7"/>
<stop offset="1" stop-color="#03E6F4"/>
</linearGradient>
<linearGradient id="paint1_linear_1278_5048" x1="12.1237" y1="6.01245" x2="242.322" y2="333.281" gradientUnits="userSpaceOnUse">
<stop stop-color="#145EF7"/>
<stop offset="1" stop-color="#03E6F4"/>
</linearGradient>
<linearGradient id="paint2_linear_1278_5048" x1="213.465" y1="280.272" x2="-122.02" y2="-174.367" gradientUnits="userSpaceOnUse">
<stop stop-color="white"/>
<stop offset="1" stop-color="#00339B"/>
</linearGradient>
</defs>
</svg>

<svg xmlns="http://www.w3.org/2000/svg" width="588" height="161" fill="none"><mask id="b" width="588" height="161" x="0" y="0" maskUnits="userSpaceOnUse" style="mask-type:alpha"><rect width="588" height="161" fill="url(#a)" rx="20"/></mask><g mask="url(#b)"><g filter="url(#c)"><rect width="588" height="161" fill="url(#d)" rx="20"/></g><path fill="url(#e)" fill-opacity=".2" fill-rule="evenodd" d="m595.648-1.746-14.013 10.34c-14.013 10.341-42.677 31.493-90.454 25.41-48.413-5.613-115.94-38.461-150.246-24.957-33.67 13.035-34.12 72.421-53.682 104.573-19.563 32.152-59.512 38.009-96.003 47.22-37.128 9.681-70.798 22.715-96.64 47.69-25.206 24.505-42.584 60.95-70.61 81.632-28.027 20.681-29.511 6.22-54.716 30.725 0 10.419.495-253.319 0-322.633h626.364Z" clip-rule="evenodd" style="mix-blend-mode:screen"/></g><defs><linearGradient id="a" x1="12.124" x2="242.322" y1="6.012" y2="333.281" gradientUnits="userSpaceOnUse"><stop stop-color="#145EF7"/><stop offset="1" stop-color="#03E6F4"/></linearGradient><linearGradient id="d" x1="12.124" x2="242.322" y1="6.012" y2="333.281" gradientUnits="userSpaceOnUse"><stop stop-color="#145EF7"/><stop offset="1" stop-color="#03E6F4"/></linearGradient><linearGradient id="e" x1="213.465" x2="-122.02" y1="280.272" y2="-174.367" gradientUnits="userSpaceOnUse"><stop stop-color="#fff"/><stop offset="1" stop-color="#00339B"/></linearGradient><filter id="c" width="604" height="177" x="-8" y="-4" color-interpolation-filters="sRGB" filterUnits="userSpaceOnUse"><feFlood flood-opacity="0" result="BackgroundImageFix"/><feColorMatrix in="SourceAlpha" result="hardAlpha" values="0 0 0 0 0 0 0 0 0 0 0 0 0 0 0 0 0 0 127 0"/><feOffset dy="4"/><feGaussianBlur stdDeviation="4"/><feComposite in2="hardAlpha" operator="out"/><feColorMatrix values="0 0 0 0 0.00784314 0 0 0 0 0.662745 0 0 0 0 0.968627 0 0 0 0.2 0"/><feBlend in2="BackgroundImageFix" result="effect1_dropShadow_1278_5048"/><feBlend in="SourceGraphic" in2="effect1_dropShadow_1278_5048" result="shape"/></filter></defs></svg>
